X:1
T:Llanherne, 87.887
T:George Thomas Thalben-Bell (1896-1987)
T:Llanherne, 87.887
T:Public Domain
C:George Thomas Thalben-Bell (1896-1987)
Z:Public Domain
%%score ( 1 2 ) ( 3 4 )
L:1/8
M:4/4
K:G
V:1 treble 
V:2 treble 
V:3 bass 
V:4 bass 
V:1
 [B,G]2 D2 CB, [A,D]2 | GFGA [DB]2 [DG]2 | D2 E[Fc] [GB]2 cA | [DG]2 DC [B,G]4 | %4
 [DA]2 [DB]2 E2 z A x | FEFG [EA]2 [DF]2 | [DB]2 [E^c]2 [Dd]2 [DF]2 | [DG]2 FE [DA]2 D2 | %8
 [B,E]2 [DF]2 GA[DB][Ec] | D2 z G [B,G]4 |] %10
V:2
 x2 D2 E2 x2 | D2 D2 x4 | d3 x E2 x2 | x2 F2 x4 | x4 G3 E2 | D2 D2 x4 | x8 | x2 ^C2 x D2 x | %8
 x4 D2 x2 | A3 C2 x3 |] %10
V:3
 [G,,D,]2 [B,,G,]2 [C,G,]2 D,C, | [B,,G,][D,A,][E,D][F,C] [G,B,]2 [G,B,]2 | %2
 [B,D]3 [A,D] [G,D]2 [C,C]2 | [D,B,]2 [D,A,]2 [G,,G,]4 | [D,F,]2 [D,F,]2 [D,B,]2 [^C,A,]2 x | %5
 A,G,A,B, [^C,A,]2 [D,A,]2 | G,F, [E,G,]2 [F,A,]2 B,2 | [C,B,]2 A,G, [F,A,][E,G,] [D,F,]2 | %8
 [D,G,]2 [C,A,]2 [B,,G,][D,F,]G,C, | [D,G,]2 [D,F,]2 [G,,G,]4 |] %10
V:4
 x6 F,2 | x8 | x8 | x8 | x9 | D,2 B,,2 x4 | G,2 x3 B,2 x | x2 A,2 x4 | x6 G,2 | x8 |] %10

